X: 22702
T: Lament For Joe Scurfield
R: hornpipe
M: 4/4
K: Gmajor
(3)DEF|G2 B>d c>c (3)AGF|G6 G>A|B2 B>d d>g (3)gfe|d6 d>e|
f2 f>g (3)afd (3)dec|d4- d>e (3)dcA|B>d (3)cAF G>A (3)GFD|D6:|
(3)GBd|g2 (3)gab a2 (3)gab|a2- a>f g2 (3)gfd|e2 (3)efg e2 (3)edc|e4 d2 (3)dcB|
c2 (3)cBA B2 (3)gdB|c2 (3)AFD F2 (2)DEF|G2 B>d c>c AGF|G6:|

